!!!!SEGMENT: pl-kk--kk-i-122--005_anonim--alleluia-virga-iesse-no-5.krn
!!!cenid: 18xx:2551
!!!COM: Anonim
!!!COM-rismID: pe30004985
!!!CDT:
!!!CNT:
!!!OTL: Alleluia Virga Iesse No. 5
!!!PDT:
!!!AGN: Sacred
!!!SMS-siglum: PL-Kk
!!!SMS-shelfmark: Kk.I.122
!!!SMS-shelfwork: 005 W
!!!SMS-variant: Baſso PL-Kk KK.I.122:0014
!!!SMS-altvar: Baſsô PL-Kk KK.I.122:0002
!!!NIFC-rismSourceID: 1001153679
!!!NIFC-rismChildID: 1001153684
!!!NIFC-islandoraID: pl-kk:3474
!!!URL-pdf-islandora: https://repozytorium.nifc.pl/islandora/object/pl-kk%3A3474/datastream/PDF/view
!!!URL-scan: https://polish.musicsources.pl/pl/lokalizacje/galeria/rekopisy/5755 @EN{Scan on Polish Music Sources Website} @PL{Skany w portalu Dziedzictwo Muzyki Polskiej w otwartym dostępie}
!!!IIIF:
!!!ONB-nifc: UWAGA: w zbiorze 5 Alleluia Virga Iesse. Numeracja plików zgodna ze źródłową.
!!!AIN: 1 alto 1 empty 1 tenor 1 vox
!!!key:
**kern	**text	**kern	**text	**kern	**text	**kern	**text
*part4	*part4	*part3	*part3	*part2	*part2	*part1	*part1
*staff4	*staff4	*staff3	*staff3	*staff2	*staff2	*staff1	*staff1
*Iempty	*	*Itenor	*	*Ialto	*	*Ivox	*
*I"Baſso	*	*I"Tenore	*	*I"Alto	*	*I"Canto	*
*I'B	*	*I'T	*	*I'A	*	*I'S	*
*clefF4	*	*clefC4	*	*clefC3	*	*clefC1	*
*k[]	*	*k[]	*	*k[]	*	*k[]	*
*C:	*	*C:	*	*C:	*	*C:	*
*M3/2	*	*M3/2	*	*M3/2	*	*M3/2	*
*2\right	*	*2\right	*	*2\right	*	*2\right	*
=1	=1	=1	=1	=1	=1	=1	=1
!	!	!	!	!	!	!LO:TX:a:t=N&colon; 5	!
!LO:TX:a:t=N&colon; 5	!	!LO:TX:a:t=N&colon; 5	!	!LO:TX:a:t=N&colon; 5	!	!LO:TX:t=P:problem=all2\right&colon; global	!
2C/	Al-	1G	Al-	2e\	Al-	2cc\	Al-
2c\	.	.	.	2g\	.	2ee\	.
2G\	-le-	2B\	-le-	2f\	-le-	2dd\	-le-
=2	=2	=2	=2	=2	=2	=2	=2
2E\	-lu-	1G	-lu-	2e\	-lu-	2cc\	-lu-
2D\	.	.	.	2d\	.	2b\	.
2C\	-ia	2G/	-ia	2e\	-ja	2cc\	-ia
=3	=3	=3	=3	=3	=3	=3	=3
2BB/	al-	2G/	al-	1f	al-	1dd	al-
2GG/	.	2B/	.	.	.	.	.
2C/	.	2G/	.	2e\	.	2cc\	.
=4	=4	=4	=4	=4	=4	=4	=4
1F	-le-	1.G	-le-	1d	.	1b	-le-
2E\	.	.	.	2e\	.	2cc\	.
=5	=5	=5	=5	=5	=5	=5	=5
2F\	.	2A/	.	2f\	-le-	2dd\	.
2G\	.	1G	-lu-	2e\	-lu-	2cc\	-lu-
2GG/	lu-	.	.	2d\	.	2b\	.
=6	=6	=6	=6	=6	=6	=6	=6
2C/	-ia.	2G/	-ia.	2e\	-ia:	2cc\	-ia.
2c\	Vir-	2A/	Vir-	2e\	Vir-	2a\	Vir-
2B\	-ga	2B/	-ga	2e\	-ga	2g#X\	-ga
=7	=7	=7	=7	=7	=7	=7	=7
2A\	Jeſ-	2c\	Jeſ-	1e	Jeſ-	2a\	Jeſ-
2G#X\	.	2d\	.	.	.	2b\	.
2A\	-se	2e\	-se	2e\	-se	2cc\	-se
=8	=8	=8	=8	=8	=8	=8	=8
!LO:LB:g=original	!	!	!	!LO:LB:g=original	!	!LO:LB:g=original	!
2F\	flo-	2B\	flo-	2d\	flo-	2dd\	flo-
2.E\	.	2A\	.	2.e\	.	2cc\	.
.	.	2G#X\	-ru-	.	.	2b\	-ru-
4E\	-ru-	.	.	4e\	-ru-	.	.
=9	=9	=9	=9	=9	=9	=9	=9
!	!	!LO:LB:g=original	!	!	!	!	!
2AA/	-it.	2A\	-it	2e\	-it	2cc\	-it
2A\	Vir-	2c\	Vir-	2r	.	2dd\	Vir-
2G\	-go	2B\	-go	2r	.	2dd\	-go
=10	=10	=10	=10	=10	=10	=10	=10
2F#X\	De-	2A/	De-	1.r	.	2dd\	De-
2d\	-um	2F#X/	-um	.	.	2a\	-um
2r	.	2r	.	.	.	2r	.
=11	=11	=11	=11	=11	=11	=11	=11
2D\	De-	2A\	De-	2f#X\	De-	2cc\	De-
2F#X\	-um	2A\	-um	2a\	-um	2cc\	-um
2D\	et	2A\	et	2f#\	et	2cc\	et
=12	=12	=12	=12	=12	=12	=12	=12
2.G\	ho-	2.B\	ho-	2.g\	ho-	2.dd\	ho-
4A\	-mi-	4c\	-mi-	4f#X\	-mi-	4dd\	-mi-
2G\	-nem	2B\	-nem	2g\	-nem	2dd\	-nem
=13	=13	=13	=13	=13	=13	=13	=13
2c\	ge-	2A\	ge-	2a\	ge-	4ee\	ge-
.	.	.	.	.	.	4cc\	.
2d\	.	2d\	.	2g\	.	2b\	.
2D/	-nu-	2d\	-nu-	2f#X\	-nu-	2a\	-nu-
=14	=14	=14	=14	=14	=14	=14	=14
!LO:LB:g=original	!	!	!	!	!	!	!
2G\	-it:	2d\	-it:	2g\	-it:	2b\	-it:
2G\	pa-	2d\	pa-	2g\	pa-	2b\	pa-
2B\	-cem	2d\	-cem	2fn\	-cem	2g\	-cem
=15	=15	=15	=15	=15	=15	=15	=15
!	!	!	!	!LO:LB:g=original	!	!LO:LB:g=original	!
4c\	De-	4e\	De-	4g\	De-	1g	De-
4B\	.	4d\	.	4f\	.	.	.
4A\	.	4c\	.	2e\	.	.	.
4G\	.	4B\	.	.	.	.	.
4F\	-us	4A\	-us,	4d\	-us	2g/	-us
4E\	.	4G\	.	4e\	.	.	.
=16	=16	=16	=16	=16	=16	=16	=16
2F\	red-	2c\	red-	2f\	red-	2a\	red-
2G\	.	2G/	.	2e\	.	2cc\	.
2GG/	-di-	2G/	-di-	2d\	-di-	2b\	-di-
=17	=17	=17	=17	=17	=17	=17	=17
2C/	-dit	2G/	-dit	2e\	-dit	2cc\	-dit
2A\	in	2r	.	2f\	in	2cc\	in
2G\	se	2r	.	2e\	se	2cc\	se
=18	=18	=18	=18	=18	=18	=18	=18
1F	re-	1G	re-	1d	re-	1b	re-
2E\	-con-	2c\	-con-	2c\	-con-	2g/	-con-
=19	=19	=19	=19	=19	=19	=19	=19
2.D\	-ci-	2.d\	-ci-	2.B/	-ci-	2.g\	-ci-
4G\	-li-	4G/	-li-	4d/	-li-	4b\	-li-
2G\	-ans	2G/	-ans	2d/	-ans	2b\	-ans
=20	=20	=20	=20	=20	=20	=20	=20
!LO:LB:g=original	!	!	!	!	!	!	!
2C/	i-	1G	i-	2e\	i-	2cc\	i-
2D/	.	.	.	2f\	.	2b\	.
2E/	-ma	2G/	-ma	2g\	-ma	2cc\	-ma
=21	=21	=21	=21	=21	=21	=21	=21
!	!	!	!	!LO:LB:g=original	!	!	!
4F\	sum-	2A\	sum-	4a\	sum-	4a\	sum-
4A\	.	.	.	4f\	.	4dd\	.
2G\	.	2e\	.	2g\	.	2cc\	.
2GG/	.	2d\	.	2f\	.	2b\	.
=22	=22	=22	=22	=22	=22	=22	=22
!	!	!LO:LB:g=original	!	!	!	!LO:LB:g=original	!
2C/	-mis	2c\	-mis	2e\	-mis	2cc\	-mis
4C/	al-	2G/	al-	4e\	al-	4cc\	al-
4D/	.	.	.	4f\	.	4b\	.
4E/	-le-	4G/	-le-	4g\	-le-	2cc\	-le-
4F/	.	4A/	.	4a\	.	.	.
=23	=23	=23	=23	=23	=23	=23	=23
2G\	-lu-	2d\	-lu-	2g\	-lu-	2b\	-lu-
2GG/	-ja	2d\	-ia	2g\	-ia	2b\	-ia
2r	.	2B\	al-	2g\	al-	2r	.
=24	=24	=24	=24	=24	=24	=24	=24
1.r	.	2B\	.	2g\	.	1.r	.
.	.	2c\	.	2f#X\	.	.	.
.	.	2d\	.	2fn\	.	.	.
=25	=25	=25	=25	=25	=25	=25	=25
2C/	al-	1G	.	2e\	.	2cc\	al-
2D/	.	.	.	2d\	.	2b\	.
2E/	-le-	2c\	le-	2c\	-le-	2g\	-le-
=26	=26	=26	=26	=26	=26	=26	=26
2F\	-lu-	2f\	-lu-	2d\	-lu-	2a\	-lu-
2G\	.	2e\	.	1g	.	2cc\	.
2GG/	.	2d\	.	.	.	2b\	.
=27	=27	=27	=27	=27	=27	=27	=27
!	!	!LO:TX:t=P:problem=na kresce podwójna fermata	!	!	!	!LO:TX:t=P:problem=na kresce podwójna fermata	!
1.C	-ia	1.e	-ia	1.g	-ia	1.cc	-ia
==	==	==	==	==	==	==	==
*-	*-	*-	*-	*-	*-	*-	*-
!!!system-decoration: [(s1,s2,s3,s4)]
!!!ENC: Kamil Watkowski
!!!END: 2021-08-05
!!!YEC: Copyright 2022 Narodowy Instytut Fryderyka Chopina (https://polishscores.org)
!!!YEM: License CC-BY-4.0 (https://creativecommons.org/licenses/by/4.0)
